dist/svg/keyhole-secret-o.svg

<!-- Generated by Trend Micro Style Portal -->
<svg version="1.1" xmlns="http://www.w3.org/2000/svg" width="16" height="16" viewBox="0 0 16 16">
  <title>keyhole-secret-o</title>
  <path fill="rgb(34,34,34)" d="M10.657 5.828c0-1.562-1.266-2.828-2.828-2.828s-2.828 1.266-2.828 2.828c0 1.1 0.634 2.043 1.552 2.511l-0.552 4.661h4l-0.79-4.718c0.859-0.485 1.446-1.396 1.446-2.454zM8-0c-4.418 0-8 3.582-8 8s3.582 8 8 8 8-3.582 8-8-3.582-8-8-8zM8 15c-3.86 0-7-3.14-7-7s3.14-7 7-7 7 3.14 7 7-3.14 7-7 7z"></path>
</svg>

<svg width="16" height="16" viewBox="0 0 16 16" fill="rgb(34, 34, 34)" xmlns="http://www.w3.org/2000/svg"><title>keyhole-secret-o</title><path d="M10.657 5.828C10.657 4.266 9.391 3 7.829 3C6.267 3 5.001 4.266 5.001 5.828C5.001 6.928 5.635 7.871 6.553 8.339L6.001 13H10.001L9.211 8.282C10.07 7.797 10.657 6.886 10.657 5.828ZM8 0C3.582 0 0 3.582 0 8C0 12.418 3.582 16 8 16C12.418 16 16 12.418 16 8C16 3.582 12.418 0 8 0ZM8 15C4.14 15 1 11.86 1 8C1 4.14 4.14 1 8 1C11.86 1 15 4.14 15 8C15 11.86 11.86 15 8 15Z" fill="rgb(34, 34, 34)" fill-opacity="1.00"/></svg>
